build/img/favicons/32.svg

<svg width="32" height="32" viewBox="0 0 32 32" fill="none" xmlns="http://www.w3.org/2000/svg">
<path d="M0 0H32V32H0V0Z" fill="url(#paint0_linear_1407_8)"/>
<path d="M15.888 26.32C14.1813 26.32 12.8907 25.84 12.016 24.88C11.1413 23.8987 10.704 22.5013 10.704 20.688V19.408H14.032V20.944C14.032 22.3947 14.64 23.12 15.856 23.12C16.4533 23.12 16.9013 22.9493 17.2 22.608C17.52 22.2453 17.68 21.6693 17.68 20.88C17.68 19.9413 17.4667 19.12 17.04 18.416C16.6133 17.6907 15.824 16.8267 14.672 15.824C13.2213 14.544 12.208 13.392 11.632 12.368C11.056 11.3227 10.768 10.1493 10.768 8.848C10.768 7.07733 11.216 5.712 12.112 4.752C13.008 3.77067 14.3093 3.28 16.016 3.28C17.7013 3.28 18.9707 3.77067 19.824 4.752C20.6987 5.712 21.136 7.09867 21.136 8.912V9.84H17.808V8.688C17.808 7.92 17.6587 7.36533 17.36 7.024C17.0613 6.66133 16.624 6.48 16.048 6.48C14.8747 6.48 14.288 7.19467 14.288 8.624C14.288 9.43467 14.5013 10.192 14.928 10.896C15.376 11.6 16.176 12.4533 17.328 13.456C18.8 14.736 19.8133 15.8987 20.368 16.944C20.9227 17.9893 21.2 19.216 21.2 20.624C21.2 22.4587 20.7413 23.8667 19.824 24.848C18.928 25.8293 17.616 26.32 15.888 26.32Z" fill="white"/>
<defs>
<linearGradient id="paint0_linear_1407_8" x1="16" y1="6.64042e-07" x2="44" y2="19" gradientUnits="userSpaceOnUse">
<stop offset="0.015625" stop-color="#ED0233"/>
<stop offset="0.942708" stop-color="#003EB7"/>
</linearGradient>
</defs>
</svg>

<svg width="32" height="32" fill="none" xmlns="http://www.w3.org/2000/svg"><path d="M0 0h32v32H0V0z" fill="url(#paint0_linear_1407_8)"/><path d="M15.888 26.32c-1.707 0-2.997-.48-3.872-1.44-.875-.981-1.312-2.379-1.312-4.192v-1.28h3.328v1.536c0 1.45.608 2.176 1.824 2.176.597 0 1.045-.17 1.344-.512.32-.363.48-.939.48-1.728 0-.939-.213-1.76-.64-2.464-.427-.725-1.216-1.59-2.368-2.592-1.45-1.28-2.464-2.432-3.04-3.456-.576-1.045-.864-2.219-.864-3.52 0-1.77.448-3.136 1.344-4.096.896-.981 2.197-1.472 3.904-1.472 1.685 0 2.955.49 3.808 1.472.875.96 1.312 2.347 1.312 4.16v.928h-3.328V8.688c0-.768-.15-1.323-.448-1.664-.299-.363-.736-.544-1.312-.544-1.173 0-1.76.715-1.76 2.144 0 .81.213 1.568.64 2.272.448.704 1.248 1.557 2.4 2.56 1.472 1.28 2.485 2.443 3.04 3.488.555 1.045.832 2.272.832 3.68 0 1.835-.459 3.243-1.376 4.224-.896.981-2.208 1.472-3.936 1.472z" fill="#fff"/><defs><linearGradient id="paint0_linear_1407_8" x1="16" y1="0" x2="44" y2="19" gradientUnits="userSpaceOnUse"><stop offset=".016" stop-color="#ED0233"/><stop offset=".943" stop-color="#003EB7"/></linearGradient></defs></svg>
